X: 801
T: Missa Nigra sum Crucifixus Credo
C: Giovanni Perluigi da Palestrina
L: 1/4
M: 4/2
N: Derived from Credo_85_b.krn
Q: "Credo"
%%staves [1 2 3 4]
V: 1 clef=treble
V: 2 clef=treble
V: 3 clef=treble-8
V: 4 clef=treble-8
K: F
[V:1] z8 | 
[V:2] z8 | 
[V:3] d8 | 
[V:4] z8 | 
[V:1] z8 | 
[V:2] z4G4- | 
[V:3] d4c4- | 
[V:4] z8 | 
[V:1] z8 | 
[V:2] G4G4 | 
[V:3] c2G2B2c2 | 
[V:4] z8 | 
[V:1] d8 | 
[V:2] F6D2 | 
[V:3] d4B4- | 
[V:4] z8 | 
[V:1] d4c4- | 
[V:2] F2G2A4 | 
[V:3] B4f3c | 
[V:4] z8 | 
[V:1] c2G2B2c2 | 
[V:2] G2B4AG | 
[V:3] _e8 | 
[V:4] z8 | 
[V:1] d2d2B4 | 
[V:2] B2A2>G2G2- | 
[V:3] d4G4 | 
[V:4] z4d4- | 
[V:1] A2dcdef2- | 
[V:2] G2FEFGA=B | 
[V:3] z8 | 
[V:4] d4d4 | 
[V:1] f2ede2dc | 
[V:2] c2>B2GAB2- | 
[V:3] g8 | 
[V:4] c6G2 | 
[V:1] d2e2d2f2 | 
[V:2] B2AGB2A2- | 
[V:3] g4f4 | 
[V:4] B2c2d2d2 | 
[V:1] f2ed^c4 | 
[V:2] A2G2A4 | 
[V:3] d4e4 | 
[V:4] B4A4- | 
[V:1] ^c4z4 | 
[V:2] z2A2A2F2 | 
[V:3] e2e2f2d2 | 
[V:4] A4d4 | 
[V:1] z4z2e2 | 
[V:2] A2GFE2E2 | 
[V:3] f2ed^c2^c2 | 
[V:4] d2G2A2a2 | 
[V:1] f2d2f2ed | 
[V:2] D4D4 | 
[V:3] d6G2 | 
[V:4] a2f2a2gf | 
[V:1] ^c2c2d3B | 
[V:2] z2A4G2 | 
[V:3] A4B4 | 
[V:4] e2e2d4 | 
[V:1] cBAGF2E2 | 
[V:2] F2E2D2C2 | 
[V:3] A4z2a2- | 
[V:4] a8 | 
[V:1] D4z4 | 
[V:2] B,4A,4 | 
[V:3] a2g2f2e2 | 
[V:4] z2d4c2 | 
[V:1] z4z2d2- | 
[V:2] F4G4 | 
[V:3] d2c2d4 | 
[V:4] B2A2G2B2 | 
[V:1] d2c2B2A2 | 
[V:2] A4F4 | 
[V:3] f2e2defd | 
[V:4] A4B2F2 | 
[V:1] G2F2E4 | 
[V:2] B2B2A4 | 
[V:3] e2d4^c2 | 
[V:4] G4A4 | 
[V:1] z2A2c2d2 | 
[V:2] z2F2A2B2 | 
[V:3] d4z4 | 
[V:4] d4z4 | 
[V:1] e2f2d3d | 
[V:2] G2A2B3B | 
[V:3] z8 | 
[V:4] z8 | 
[V:1] c2d2>c2B2 | 
[V:2] A2B2>A2G2- | 
[V:3] z8 | 
[V:4] z2B2d2_e2 | 
[V:1] A4GABc | 
[V:2] G2^F2G2G2 | 
[V:3] z8 | 
[V:4] c2d2_e3_e | 
[V:1] d3c/ B/A4 | 
[V:2] F2DEFGA2- | 
[V:3] z4z2F2 | 
[V:4] d2Bcdef2- | 
[V:1] z4z2A2- | 
[V:2] AGF2E4 | 
[V:3] A2B2G2A2 | 
[V:4] fed4c2 | 
[V:1] A2G2A2c2- | 
[V:2] D2D4C2 | 
[V:3] B2>B2A4 | 
[V:4] f2ede4 | 
[V:1] cBB2A4 | 
[V:2] D4F2E2- | 
[V:3] G4A4 | 
[V:4] z2d4^c2 | 
[V:1] A8- | 
[V:2] EDD4^C2 | 
[V:3] z8 | 
[V:4] d2f4e2- | 
[V:1] A8 | 
[V:2] D2F2E4 | 
[V:3] z4z2a2- | 
[V:4] edd4c2 | 
[V:1] z2d4^c2 | 
[V:2] D4A4 | 
[V:3] a2g2f2e2- | 
[V:4] B4A4 | 
[V:1] d2f4e2- | 
[V:2] A8 | 
[V:3] edd4^c2 | 
[V:4] d2>e2fga2 | 
[V:1] edd4^c2 | 
[V:2] A8 | 
[V:3] d4A4 | 
[V:4] f3e/ d/e4 | 
[V:1] d4A4- | 
[V:2] z2D4E2 | 
[V:3] z2f4c2 | 
[V:4] d4z4 | 
[V:1] A2=B2c4 | 
[V:2] F4G2A2 | 
[V:3] d4c2A2 | 
[V:4] z8 | 
[V:1] d2e2f4- | 
[V:2] B6AG | 
[V:3] G4d4 | 
[V:4] z4z2d2- | 
[V:1] f2edcAd2 | 
[V:2] A6GF | 
[V:3] z2A4B2 | 
[V:4] d2e2f2g2- | 
[V:1] c3B/ A/B4 | 
[V:2] E2A,2z4 | 
[V:3] c4d2e2 | 
[V:4] g2a4g2 | 
[V:1] A4z2A2 | 
[V:2] z2D2E2F2 | 
[V:3] f3e/ d/^c2d2 | 
[V:4] a8 | 
[V:1] B2c2d2B2 | 
[V:2] G2E2D2G2- | 
[V:3] G2A2B3c | 
[V:4] z8 | 
[V:1] A2d2>c2c2 | 
[V:2] GFF2G2A2- | 
[V:3] d4z4 | 
[V:4] z2d2e2f2 | 
[V:1] B2AGA4 | 
[V:2] AGG4F2 | 
[V:3] z8 | 
[V:4] g2e2d4- | 
[V:1] G4z4 | 
[V:2] BAGFEFG2- | 
[V:3] G4A2B2 | 
[V:4] d4z2d2 | 
[V:1] z8 | 
[V:2] G2C2z2G2 | 
[V:3] c2A2G4 | 
[V:4] e2f2g2e2 | 
[V:1] z2d2e2f2 | 
[V:2] A2B2c2A2 | 
[V:3] z8 | 
[V:4] d4c2d2 | 
[V:1] g2e2d2g2- | 
[V:2] G2c2>B2BA/ G/ | 
[V:3] z8 | 
[V:4] e2>f2g4 | 
[V:1] g2f2e2d2- | 
[V:2] A4G2A2 | 
[V:3] z2d2e2f2 | 
[V:4] d4z4 | 
[V:1] d2^c2d2=cB | 
[V:2] B2A2z2E2 | 
[V:3] g2e2d2g2 | 
[V:4] z2A2B2c2 | 
[V:1] A2d2d2c2 | 
[V:2] F2G2A4- | 
[V:3] f2ede4 | 
[V:4] d2B2A4 | 
[V:1] f2>d2e2f2- | 
[V:2] A2=B2c4 | 
[V:3] d2f2g2a2 | 
[V:4] d4c2BA | 
[V:1] fed4^c2 | 
[V:2] F2>G2A4 | 
[V:3] d4e4 | 
[V:4] B4A4 | 
[V:1] d8- | 
[V:2] B8 | 
[V:3] g8 | 
[V:4] G8 | 
[V:1] d8
[V:2] A8
[V:3] ^f8
[V:4] d8

